64x64/apps/net.kuribo64.melonDS.svg

<svg height="64" width="64" xmlns="http://www.w3.org/2000/svg"><path d="m4.203 27.697 22.494-22.494a7.483 7.483 0 0 1 10.606 0l22.494 22.494a7.483 7.483 0 0 1 0 10.606l-22.494 22.494a7.483 7.483 0 0 1 -10.606 0l-22.494-22.494a7.483 7.483 0 0 1 0-10.606z" opacity=".2"/><path d="m4.203 26.697 22.494-22.494a7.483 7.483 0 0 1 10.606 0l22.494 22.494a7.483 7.483 0 0 1 0 10.606l-22.494 22.494a7.483 7.483 0 0 1 -10.606 0l-22.494-22.494a7.483 7.483 0 0 1 0-10.606z" fill="#519b31"/><g transform="matrix(.70710678 -.70710678 .70710678 .70710678 0 0)"><rect height="38.441" opacity=".2" rx="7.699" width="38.441" x="-19.93" y="26.74"/><rect fill="#ffe8b6" height="38.441" rx="7.699" width="38.441" x="-19.22" y="26.03"/><rect fill="#d0273d" height="32.767" rx="5.25" width="32.767" x="-16.38" y="28.87"/><rect height="13.043" opacity=".2" rx="2.773" width="21.311" x="-11.36" y="32.37"/><rect fill="#ff5b54" height="13.043" rx="2.773" width="21.311" x="-10.66" y="31.66"/><rect height="13.043" opacity=".2" rx="2.773" width="21.311" x="-11.36" y="46.51"/><rect fill="#ff5b54" height="13.043" rx="2.773" width="21.311" x="-10.66" y="45.8"/><rect fill="#17191e" height="8.3" rx="1.764" width="13.562" x="-6.78" y="34.03"/><rect fill="#17191e" height="3.788" rx=".432" width="3.788" x="-9.67" y="50.43"/></g><path d="m39.922 26c-.709 0-1.414.273-1.957.816l-11.149 11.149a2.751 2.751 0 0 0 -.763 2.445c.099-.528.352-1.034.763-1.445l11.149-11.149a2.758 2.758 0 0 1 3.918 0l5.3 5.301c.411.41.664.916.764 1.8" fill="#f4f4f7" opacity=".2"/><rect fill="#17191e" height="3.788" rx=".432" transform="matrix(.70710678 -.70710678 .70710678 .70710678 0 0)" width="3.788" x="5.88" y="50.43"/><path d="m29.922 16c-.709 0-1.414.273-1.957.816l-11.149 11.149a2.751 2.751 0 0 0 -.763 2.445c.099-.528.352-1.034.763-1.445l11.149-11.149a2.758 2.758 0 0 1 3.918 0l5.3 5.301c.411.41.664.916.764 1.8" fill="#f4f4f7" opacity=".2"/><path d="m32 2a7.48 7.48 0 0 0 -5.305 2.203l-22.492 22.492c-1.58 1.581-2.278 3.679-2.154 5.739a7.402 7.402 0 0 1 2.154-4.739l22.492-22.492a7.48 7.48 0 0 1 5.305-2.203 7.48 7.48 0 0 1 5.305 2.203l22.492 22.492a7.402 7.402 0 0 1 2.154 4.739c.124-2.06-.573-4.158-2.154-5.739l-22.492-22.492a7.48 7.48 0 0 0 -5.305-2.203z" fill="#f4f4f7" opacity=".2"/><path d="m32 8a7.677 7.677 0 0 0 -5.445 2.262l-16.293 16.293c-1.622 1.622-2.335 3.774-2.207 5.888.12-1.779.84-3.522 2.207-4.888l16.293-16.293a7.677 7.677 0 0 1 5.445-2.262c1.968 0 3.937.754 5.445 2.262l16.293 16.293a7.584 7.584 0 0 1 2.207 4.888c.128-2.114-.585-4.266-2.207-5.888l-16.293-16.293a7.677 7.677 0 0 0 -5.445-2.262z" fill="#f4f4f7" opacity=".2"/></svg>

<svg xmlns="http://www.w3.org/2000/svg" width="64" height="64"><path style="opacity:.2" d="M4.203 27.697 26.697 5.203a7.483 7.483 0 0 1 10.606 0l22.494 22.494a7.483 7.483 0 0 1 0 10.606L37.303 60.797a7.483 7.483 0 0 1-10.606 0L4.203 38.303a7.483 7.483 0 0 1 0-10.606z"/><path style="fill:#519b31" d="M4.203 26.697 26.697 4.203a7.483 7.483 0 0 1 10.606 0l22.494 22.494a7.483 7.483 0 0 1 0 10.606L37.303 59.797a7.483 7.483 0 0 1-10.606 0L4.203 37.303a7.483 7.483 0 0 1 0-10.606z"/><rect style="opacity:.2" width="38.441" height="38.441" x="-19.93" y="26.74" rx="7.699" ry="7.699" transform="rotate(-45)"/><rect style="fill:#ffe8b6" width="38.441" height="38.441" x="-19.22" y="26.03" rx="7.699" ry="7.699" transform="rotate(-45)"/><rect style="fill:#d0273d" width="32.767" height="32.767" x="-16.38" y="28.87" rx="5.25" ry="5.25" transform="rotate(-45)"/><rect style="opacity:.2" width="21.311" height="13.043" x="-11.36" y="32.37" rx="2.773" ry="2.773" transform="rotate(-45)"/><rect style="fill:#ff5b54" width="21.311" height="13.043" x="-10.66" y="31.66" rx="2.773" ry="2.773" transform="rotate(-45)"/><rect style="opacity:.2" width="21.311" height="13.043" x="-11.36" y="46.51" rx="2.773" ry="2.773" transform="rotate(-45)"/><rect style="fill:#ff5b54" width="21.311" height="13.043" x="-10.66" y="45.8" rx="2.773" ry="2.773" transform="rotate(-45)"/><rect style="fill:#17191e" width="13.562" height="8.3" x="-6.78" y="34.03" rx="1.764" ry="1.764" transform="rotate(-45)"/><rect style="fill:#17191e" width="3.788" height="3.788" x="-9.67" y="50.43" rx=".432" ry=".432" transform="rotate(-45)"/><path style="opacity:.2;fill:#f4f4f7" d="M39.922 26c-.709 0-1.414.273-1.957.816L26.816 37.965a2.751 2.751 0 0 0-.763 2.445c.099-.528.352-1.034.763-1.445l11.149-11.149a2.758 2.758 0 0 1 3.918 0l5.3 5.301c.411.41.664.916.764 1.8b9cbea2.753 2.753 0 0 0-.763-2.8b9cbel-5.301-5.3A2.767 2.767 0 0 0 39.922 26z"/><rect style="fill:#17191e" width="3.788" height="3.788" x="5.88" y="50.43" rx=".432" ry=".432" transform="rotate(-45)"/><path style="opacity:.2;fill:#f4f4f7" d="M29.922 16c-.709 0-1.414.273-1.957.816L16.816 27.965a2.751 2.751 0 0 0-.763 2.445c.099-.528.352-1.034.763-1.445l11.149-11.149a2.758 2.758 0 0 1 3.918 0l5.3 5.301c.411.41.664.916.764 1.8b9cbea2.753 2.753 0 0 0-.763-2.8b9cbel-5.301-5.3A2.767 2.767 0 0 0 29.922 16z"/><path style="opacity:.2;fill:#f4f4f7" d="M32 2a7.48 7.48 0 0 0-5.305 2.203L4.203 26.695c-1.58 1.581-2.278 3.679-2.154 5.739a7.402 7.402 0 0 1 2.154-4.739L26.695 5.203A7.48 7.48 0 0 1 32 3a7.48 7.48 0 0 1 5.305 2.203l22.492 22.492a7.402 7.402 0 0 1 2.154 4.739c.124-2.06-.573-4.158-2.154-5.739L37.305 4.203A7.48 7.48 0 0 0 32 2z"/><path style="opacity:.2;fill:#f4f4f7" d="M32 8a7.677 7.677 0 0 0-5.445 2.262L10.262 26.555c-1.622 1.622-2.335 3.774-2.207 5.888.12-1.779.84-3.522 2.207-4.888l16.293-16.293A7.677 7.677 0 0 1 32 9c1.968 0 3.937.754 5.445 2.262l16.293 16.293a7.584 7.584 0 0 1 2.207 4.888c.128-2.114-.585-4.266-2.207-5.888L37.445 10.262A7.677 7.677 0 0 0 32 8z"/></svg>
